X:1
T:Missa super Baisez moy
T:Missa super Baisez moy
T:Petrus Roselli
C:Petrus Roselli
%%score [ 1 [ 2 3 ] 4 ]
L:1/8
Q:1/4=120
M:2/2
K:C
V:1 treble nm="Soprano" snm="S"
V:2 treble-8 nm="Tenor 1" snm="T 1"
V:3 treble-8 nm="Tenor 2" snm="T 2"
V:4 bass nm="Bass" snm="B"
V:1
 z8 | z8 | z8 | G6 G2 | c6 d2- | dc c4 B2 | c2 c2 d3 c | BA A4 G2 | A2 c3 BAG | F3 E/D/ E4 | %10
w: |||Ky- ri-|e, [e-|* * le- y-|son, Ky- * *|* * * ri-|e e- * * *|* * * ley-|
 D4 z4 | D6 D2 | G6 A2- | AG G4 F2 | G8 || z8 | z8 | G4 D2 G2- | GF E2 D4 | C2 F4 E2 | %20
w: son|Ky- ri-|e] e-|* * * ley-|son.|||Chri- * *|||
 F2 DE FG A2- |"^#" AB G4 F2 | G8 | z8 | G3 A Bc d2- | dc c4 B2 | c4 A4 | G2 _B4 AG | F8 | F8 || %30
w: ||ste,||[Chri- * * * *||ste] e-|le- * * *|y-|son.|
 z8 | G4 G2 G2 | E4 C2 F2- | FEDC D3 C | D4 G4 | F4 z4 | A4 A2 A2 | F4 D4 | z4 d4 | d2 d2 B4 | %40
w: |Ky- ri- e|[e- * *||* ley-|o-|Ky- ri e'e-|ley- son|Ky-|ri- e, e-|
 G2 c2- cBAG | A2 c3 BAG | F2 c3 B A2- | AG G4 F2 | G8 | G8- | G8 |] %47
w: |||* * ]- le-|y-|son.|_|
V:2
 z8 | z8 | z8 | z4 c4- | c2 c2 f4 | g2 e2 d4 | c4 z2 g2- | ge f2 e3 d | c3 B/A/ B2 c2 | d2 B2 A4 | %10
w: |||Ky-|* ri- e,|[e- * ley|son, Ky-||||
"^#" B2 G4 F2 | G3 A B4 | c3 d ed/e/ f2- | f2 d4 d2 | d8 || G3 A Bc d2- | de c4 B2 | c4 z2 B2 | %18
w: |ri- * e]|e- * * * * *|* * ley-|son.|Chri- * * * *||ste, [Chri-|
 c2 g3 f d2 | e2 c4 c2 | A8 | z4 d4 | d4 e2 d2- | d2 cB A4 | G2 g2 d2 g2- | g2 fe d4 | %26
w: |* * ste|_|Chri-|ste, Chri- *||||
 c2 e2 f2 d2- |"^b" d2 cB c4 | d8- | d8 || d4 d2 d2 | B4 G4 | G4 A4 | DEFG A2 B2 |"^#" A2 d4 c2 | %35
w: ste] e- * *|* * * ley-|son.|_|Ky- ri- e|[e- *|le- *||* * y-|
 d8 | z4 A4 | A2 A2 F4 | D4 G4 | z4 g4 | g2 g2 e4 | c4 d2 c2 | d2 e2 d2 c2 | d3 c/d/ e2 d2 | %44
w: son,|Ky-|ri- e, e-|ley- son,|Ky-|ri- e'e- ley-|son, Ky- ri-|e, e- * *||
"^b""^b" B2 c2 e4- | e2 d2 d4- | d8 |] %47
w: * ] le-|* y- son.|_|
V:3
 G6 G2 | c6 d2- | dc c4 B2 | c4 z4 | z8 | G6 G2 | c4 B4 | c2 d2 B4 | A4 z2 G2 | A2 d4 c2 | %10
w: Ky- ri-|e [e-|* * le- y-|son,||Ky- ri-|e, Ky-|* * ri-|e, Ky-||
 d2 B2 A4 | z4 G4- | G2 G2 c4 | d2 B2 A4 | G8 || z8 | z8 | G3 A Bc d2 | e2 c4 B2 | c2 A2 G4 | %20
w: * ri- e]|e-|* ley- *||son.|||Chri- * * * *||* * ste,|
 z2 d2 A2 d2- | d2 cB A4 | B3 A/B/ c2 B2 | A2 G4 F2 | G8- | G8 | G4 F4 | G8 | A4 _B4 | A8 || z8 | %31
w: [Chri- * *||||ste|]|e- *|le-|y _|son.||
 z8 | c4 c2 c2 | A4 F3 G | A2 _B2 G4 | A4 A2 A2 | F4 D4 | z8 | d6 d2 | B4 G4 | z4 c4 | c3 B A2 G2 | %42
w: |Ky- ri- e|[e- le- *|* y- son,|Ky- ri e'e-|ley- son.||Ky- r-|e _|Ky-|ri- * * e,|
 A8 | D2 _B2 A4 | G8 | G8- | G8 |] %47
w: e-|* ] le-|y-|son.|_|
V:4
 z4 C,4- | C,2 C,2 F,4 | G,2 E,2 D,4 | C,8- | C,4 z4 | z4 G,,4 | A,,4 G,,4 | z2 D,2 E,4 | F,4 E,4 | %9
w: Ky-|* ri- e,|[e- * ley-|son,|_|Ky-|ri- e,|Ky- ri-||
"^#" D,4 z4 | G,,4 D,4 | G,,4 G,,4 | C,6 F,2- | F,2 G,2 D,4 | G,,8 || G,4 D,2 G,2- | G,2 F,E, D,4 | %17
w: e,|Ky- *|ri- e|] e-|* * ley-|son.|Chri- * *||
 C,4 G,4 | C,4 G,4 | E,2 F,2 C,4 | D,8- | D,8 | G,4 z4 | D,4 D,4 | E,3 F, G,4 | z4 G,,4 | C,4 D,4 | %27
w: |||||ste,|[Chri- ste|_ _ ]|e-|le- *|
"^b" E,8 | D,8 | D,8 || z4 G,4 | G,2 G,2 E,4 | C,4 F,4 | F,4 D,3 E, | F,2 G,2 E,4 | D,8 | z8 | %37
w: |y-|son.|Ky-|ri- e [e-||* le- *|* * y-|son,||
 D,4 D,2 D,2 | B,,4 G,,4 | G,4 G,2 G,2 | E,4 C,4 | F,6 E,2 | D,2 C,2 D,2 F,2- | F,2 _B,,2 C,2 D,2 | %44
w: Ky- ri- e'e-|ley- son,|Ky- ri- e'e-|ley- son|Ky- ri-|e, e- * *||
"^b""^b" E,2 C,4 B,,A,, | G,,8- | G,,8 |] %47
w: ] le- y _|son.|_|

